flags/us-ri.svg

<svg width="512" height="512" viewBox="0 0 512 512" fill="none" xmlns="http://www.w3.org/2000/svg">
<rect width="512" height="512" fill="var(--flag-palette-white, #eeeeee)"/>
<path d="M236 107L288 69H224L276 107L256 46L236 107ZM406 236L443 288V224L406 276L467 256L406 236ZM276 406L224 443H288L236 406L256 467L276 406ZM107 276L69 224V288L107 236L46 256L107 276ZM313 117L377 110L322 78L348 137L361 74L313 117ZM396 313L402 377L434 322L375 348L438 361L396 313ZM199 396L135 402L190 434L164 375L151 438L199 396ZM117 199L110 135L78 190L137 164L74 151L117 199ZM376 164L434 190L402 135L395 199L438 151L376 164ZM348 376L322 434L377 402L313 395L361 438L348 376ZM137 348L78 322L110 377L116 313L74 361L137 348ZM164 137L190 78L135 110L199 116L151 74L164 137ZM256 134C249.635 134 243.53 136.529 239.029 141.029C234.529 145.53 232 151.635 232 158C231.922 163.026 233.425 167.95 236.295 172.077C239.166 176.204 243.26 179.325 248 181V198H232V214H248V253C228 251 218 238 215 235L226 224H194V256L204 246C210.383 253.575 218.344 259.664 227.326 263.841C236.308 268.018 246.094 270.182 256 270.182C265.906 270.182 275.692 268.018 284.674 263.841C293.656 259.664 301.617 253.575 308 246L318 256V224H286L297 235C294 238 284 251 264 253V214H280V198H264V181C268.74 179.325 272.834 176.204 275.705 172.077C278.575 167.95 280.078 163.026 280 158C280 151.635 277.471 145.53 272.971 141.029C268.47 136.529 262.365 134 256 134ZM256 150C258.122 150 260.157 150.843 261.657 152.343C263.157 153.843 264 155.878 264 158C264 160.122 263.157 162.157 261.657 163.657C260.157 165.157 258.122 166 256 166C253.878 166 251.843 165.157 250.343 163.657C248.843 162.157 248 160.122 248 158C248 155.878 248.843 153.843 250.343 152.343C251.843 150.843 253.878 150 256 150Z" fill="var(--flag-palette-gold, #ff9811)"/>
<path fill-rule="evenodd" clip-rule="evenodd" d="M168.675 321.778C172.384 323.89 176.213 325.892 180.05 327.728L180.644 328.008L179.333 330.912L178.058 333.737L180.883 335.012C192.696 340.35 205.115 344.432 217.797 347.147C230.332 349.829 243.198 351.191 256.028 351.191C268.857 351.191 281.723 349.829 294.262 347.147C306.94 344.432 319.36 340.35 331.177 335.012L334.002 333.737L332.727 330.912L331.416 328.008L332.009 327.728C335.852 325.892 339.68 323.89 343.385 321.778L348 319.146L343.435 316.426C340.196 314.494 336.984 312.446 333.873 310.334C333.753 306.293 333.514 302.239 333.164 298.259L332.741 293.446L328.544 295.839C324.771 297.988 320.86 299.994 316.912 301.802L310.718 304.637L312.494 309.501C294.506 316.73 275.543 320.393 256.028 320.393C236.512 320.393 217.379 316.698 199.317 309.4L201.342 304.632L195.144 301.798C191.2 299.994 187.284 297.988 183.511 295.834L179.268 293.418L178.886 298.287C178.573 302.281 178.375 306.349 178.297 310.398C175.159 312.492 171.919 314.512 168.648 316.412L164 319.118L168.675 321.782L168.675 321.778Z" fill="var(--flag-palette-blue, #0052b4)"/>
</svg>

<svg xmlns="http://www.w3.org/2000/svg" width="512" height="512" fill="none"><path fill="var(--flag-palette-white, #eeeeee)" d="M0 0h512v512H0z"/><path fill="var(--flag-palette-gold, #ff9811)" d="m236 107 52-38h-64l52 38-20-61zm170 129 37 52v-64l-37 52 61-20zM276 406l-52 37h64l-52-37 20 61zM107 276l-38-52v64l38-52-61 20zm206-159 64-7-55-32 26 59 13-63zm83 196 6 64 32-55-59 26 63 13zm-197 83-64 6 55 32-26-59-13 63zm-82-197-7-64-32 55 59-26-63-13zm259-35 58 26-32-55-7 64 43-48zm-28 212-26 58 55-32-64-7 48 43zm-211-28-59-26 32 55 6-64-42 48zm27-211 26-59-55 32 64 6-48-42zm92-3a24 24 0 0 0-24 24 24 24 0 0 0 16 23v17h-16v16h16v39c-20-2-30-15-33-18l11-11h-32v32l10-10a68 68 0 0 0 104 0l10 10v-32h-32l11 11c-3 3-13 16-33 18v-39h16v-16h-16v-17a24 24 0 0 0 16-23 24 24 0 0 0-24-24m0 16a8 8 0 1 1 0 16 8 8 0 0 1 0-16"/><path fill="var(--flag-palette-blue, #0052b4)" fill-rule="evenodd" d="m168.7 321.8 11.4 6 .5.2-1.3 3-1.2 2.7 2.8 1.3a183 183 0 0 0 150.3 0l2.8-1.3-1.3-2.8-1.3-2.9.6-.3q5.8-2.7 11.4-6l4.6-2.6-4.6-2.7-9.5-6q-.2-6.2-.7-12.1l-.5-4.9-4.2 2.4q-5.6 3.3-11.6 6l-6.2 2.8 1.8 4.9a151 151 0 0 1-113.2-.1l2-4.8-6.2-2.8q-5.9-2.7-11.6-6l-4.2-2.4-.4 4.9q-.5 6-.6 12.1l-9.7 6-4.6 2.7z" clip-rule="evenodd"/></svg>
